X: 763
T: Shiquan renxen
L: 1/8
M: 4/4
K: G
A A d e/ d/ B A E G [I:setbarnb 1]| 
B A G D/ E/D4 | 
A B A A d A/ G/ E G | 
B A G D/ E/D4 | 
A GA2A d c B | 
d A/ d/ E D2<G2F/ E/ | 
A B A A d A/ G/ E G | 
B A G D/ E/D4 | 
A B A d2<G2F/ E/ | 
A B A A d A/ G/ E G | 
B A G D/ E/D4 |]

@@@ Tune index: 9637
